usr/share/icons/biglinux-icons-material/symbolic/devices/colorimeter-colorhug-symbolic.svg

<svg width="16" height="16" version="1.1" xmlns="http://www.w3.org/2000/svg">
 <g transform="translate(-1233 -21)">
  <path transform="translate(1233,21)" d="m7.0625 1c-0.455 0.05-0.884 0.221-1.25 0.5-0.488 0.371-0.8125 0.9545-0.8125 1.6875v3.8125h-2.5c-0.277 0-0.5 0.22209-0.5 0.49609v7.0098c0 0.274 0.223 0.49414 0.5 0.49414h6c0.277 0 0.5-0.22014 0.5-0.49414v-7.0098a0.497 0.497 0 0 0-0.5-0.49609h-2.5v-3.8125c0-0.449 0.1715-0.70325 0.4375-0.90625 0.266-0.202 0.6635-0.30025 1.0625-0.28125s0.7835 0.15425 1.0625 0.40625c0.278 0.252 0.46875 0.585 0.46875 1.125 0 2.166 1.464 3.5098 3 3.4688 0.857-0.022 1.689-0.4765 2.25-1.3125l-0.5625-1c-0.375 0.916-1.0678 1.2955-1.7188 1.3125-0.96 0.025-1.9688-0.72975-1.9688-2.4688 0-0.792-0.3365-1.444-0.8125-1.875-0.476-0.43-1.0805-0.62725-1.6875-0.65625-0.151-7e-3 -0.31775-0.017-0.46875 0zm6.9375 2v0.125l0.78125 1.375c0.011-0.04 0.02125-0.083 0.03125-0.125l-0.8125-1.375zm0 0.34375-0.029297 0.3125 0.7168 1.2188c0.023-0.063 0.0435-0.1215 0.0625-0.1875l-0.75-1.3438zm-0.0625 0.5c-0.014 0.09-0.041594 0.166-0.058594 0.25l0.6543 1.125c0.03-0.061 0.06675-0.1235 0.09375-0.1875l-0.68945-1.1875zm-0.09375 0.4375c-0.024 0.09-0.06475 0.17-0.09375 0.25l0.59375 1.0312c0.04-0.066 0.088-0.1185 0.125-0.1875l-0.625-1.0938zm-10.844 3.7188h5v6h-5v-6z" fill="#363636" style="text-decoration-line:none;text-indent:0;text-transform:none"/>
 </g>
</svg>

<svg xmlns="http://www.w3.org/2000/svg" width="16" height="16"><path fill="#dedede" d="M7.063 1c-.455.05-.884.221-1.25.5C5.325 1.871 5 2.455 5 3.188V7H2.5c-.277 0-.5.222-.5.496v7.01c0 .274.223.494.5.494h6c.277 0 .5-.22.5-.494v-7.01A.497.497 0 0 0 8.5 7H6V3.188c0-.45.172-.704.438-.907.266-.202.663-.3 1.062-.281s.783.154 1.063.406c.277.252.468.585.468 1.125 0 2.166 1.464 3.51 3 3.47.857-.023 1.69-.477 2.25-1.313l-.562-1C13.344 5.604 12.65 5.983 12 6c-.96.025-1.969-.73-1.969-2.469 0-.792-.336-1.444-.812-1.875-.476-.43-1.08-.627-1.688-.656-.15-.007-.318-.017-.469 0zM14 3v.125l.781 1.375c.011-.04.021-.083.031-.125L14 3zm0 .344-.03.312.718 1.219c.023-.063.043-.121.062-.187L14 3.344zm-.063.5c-.013.09-.041.166-.058.25l.654 1.125c.03-.061.067-.124.094-.188l-.69-1.187zm-.093.437c-.024.09-.065.17-.094.25l.594 1.031c.04-.066.088-.118.125-.187l-.625-1.094zM3 8h5v6H3V8z" style="text-decoration-line:none;text-indent:0;text-transform:none"/></svg>
